!!!COM: Bach, Johann Sebastian
!!!OPR: Joh. Seb. Bachs vierstimmige Choralges‰nge
!!!XEN: Four-part Chorales
!!!OTL: 135. Nun freut euch, lieben Christen g'mein
!!!SCT: BWV 388
!!!SCA: Thematisch-systematisches Verzeichnis der musikalischen Werke Johann Sebastian Bach: Bach-Werke-Verzeichnis (Schmieder)
!!!YOR: Bach Gesellschaft Edition xxxix
!!!ENC: Steven Rasmussen
!!!CDT: 1685/3//-1750/7/28/
!!!OCY: Deutschland
!!!YEC: Copyright (c) 1994, 2000 Center for Computer Assisted Research in the Humanities
!!!YEM: Rights to all derivative editions reserved
!!!YEN: United States of America
**kern	**silbe	**kern	**kern	**kern
*I:[SOPRANO]	*I:[SOPRANO]	*I:[ALTO]	*I:[TENORE]	*I:[BASSO]
*>[A,A,B]	*	*>[A,A,B]	*>[A,A,B]	*>[A,A,B]
*>A	*	*>A	*>A	*>A
*clefG2	*	*clefG2	*clefGv2	*clefF4
*k[f#]	*	*k[f#]	*k[f#]	*k[f#]
*G:	*	*G:	*G:	*G:
*M4/4	*	*M4/4	*M4/4	*M4/4
4g	Nundass	4d	8BL	8GGL
.	.	.	8AJ	8AAJ
=1	=1	=1	=1	=1
4g	freutwir	4d	4G	8BBL
.	.	.	.	8CJ
4d	euch,ge-	4A	4F#	8DL
.	.	.	.	8CJ
4g	lie--trost	4d	4G	4BB
4cc	-benund	4a	8GL	4AA
.	.	.	8F#J	.
=2	=2	=2	=2	=2
4b	Chri-all'	4d	4.G	8GGL
.	.	.	.	8BBJ
4a	-stenin	8.dL	.	4D
.	.	.	8F#	.
.	.	16cJk	.	.
4g;	g'mein,Ein	4B;	4D;	4GG;
4g	undmit	8BL	4G	4E
.	.	8c#J	.	.
=3	=3	=3	=3	=3
8aL	lasstLust	8dL	8F#L	4D
8bJ	.	8fnJ	8G#J	.
4cc	unsund	8eL	4A	4AA
.	.	8f#J	.	.
4b	fr√∂h-Lie-	4g	8DL	8BBL
.	.	.	8EJ	8CJ
4a	-lich-be	8dL	4F#	4D
.	.	16AL	.	.
.	.	16BJJ	.	.
=4	=4	=4	=4	=4
4e	sprin-sin-	2c	4G	8CL
.	.	.	.	8BBJ
4f#	.	.	4A	4AA
4g;	-gen,-gen:	4B;	4D;	4GG;
=:|!	=:|!	=:|!	=:|!	=:|!
*>B	*	*>B	*>B	*>B
4g	was	4d	4B	8GL
.	.	.	.	8F#J
=5	=5	=5	=5	=5
4cc	Gott	(8g	8eL	8EL
.	.	4a)	8dJ	8F#J
4b	an	.	4d	4G
.	.	16gLL	.	.
.	.	16f#JJ	.	.
4a	uns	4e	4c#	8GL
.	.	.	.	16AL
.	.	.	.	16GJJ
4dd	ge-	8aL	4d	8F#L
.	.	8f#J	.	8BJ
=6	=6	=6	=6	=6
4dd	-wen-	(8e	8BL	4G
.	.	4g)	8EJ	.
4cc#	-det	.	4A	8AL
.	.	16f#LL	.	8AAJ
.	.	16eJJ	.	.
4dd;	hat,	4f#;	4A;	4D;
4dd	und	4g	4d	4BB
=7	=7	=7	=7	=7
4ee	sei-	4g	8dL	8CL
.	.	.	16cL	8DJ
.	.	.	16BJJ	.
4cc	-ne	4g	8cL	4E
.	.	.	8eJ	.
4.dd	s√º-	8aL	8dL	8F#L
.	.	8f#J	8cJ	8DJ
.	.	8gL	8BL	8EL
8cc	-sse	8aJ	8AJ	8F#J
=8	=8	=8	=8	=8
4b	Wun-	(8a	16BLL	4G
.	.	.	16cJJ	.
.	.	4g)	4d	.
4a	-der	.	.	4D
.	.	8f#	8c	.
4g;	tat;	4e;	4B;	4E;
4b	gar	4e	4G	4E
=9	=9	=9	=9	=9
4a	teu'r	8eL	4A	4F#
.	.	16dL	.	.
.	.	16cJJ	.	.
4d	hat	4B	8GL	8GL
.	.	.	8AJ	8F#J
4g	er's	8eL	4B	4E
.	.	8dJ	.	.
4cc	er-	8eL	4A	4AA
.	.	8f#J	.	.
=10	=10	=10	=10	=10
4b	-wor-	4.g	[4d	8BBL
.	.	.	.	8CJ
4a	.	.	8.dL]	4D
.	.	8f#	.	.
.	.	.	16cJk	.
4g;	-ben.	4d;	4B;	4GG;
==|!	==|!	==|!	==|!	==|!
*-	*-	*-	*-	*-
!!!RWG: Key is interpreted using the Humdrum key tool.
!!!END: 1994/07/19
!!!EMD: Converted from MuseData to Humdrum Dec 19, 2000, by Andreas Kornstaedt using muse2kern.
!!!EED: Craig Stuart Sapp
!!!EEV: 2024/03/31
!!!ONB: Some non-unicode characters
